docs/styles/img/workProcess/11.svg

<svg width="190" height="365" viewBox="0 0 190 365" fill="none" xmlns="http://www.w3.org/2000/svg">
<path d="M44.2 76.5933C44.2 57.051 41.7348 42.867 36.8044 34.0414C32.5783 25.2159 24.1261 19.2271 11.4478 16.0751C-1.23044 12.9231 -21.6565 11.3471 -49.8304 11.3471C-51.9435 11.3471 -53 9.45596 -53 5.67356C-53 1.89119 -51.9435 0 -49.8304 0C-29.4043 0 -13.2043 0.315188 -1.23044 0.945577L68.5 1.8912L137.174 0.945577C149.148 0.315188 165.7 0 186.83 0C188.943 0 190 1.89119 190 5.67356C190 9.45596 188.943 11.3471 186.83 11.3471C160.065 11.3471 139.991 13.2383 126.609 17.0207C113.93 20.1727 105.126 26.1615 100.196 34.987C95.2652 43.8126 92.8 57.6814 92.8 76.5933V288.407C92.8 307.949 94.913 322.133 99.1391 330.959C104.07 339.784 112.874 345.773 125.552 348.925C138.23 352.077 158.657 353.653 186.83 353.653C188.943 353.653 190 355.544 190 359.326C190 363.109 188.943 365 186.83 365C166.404 365 150.204 364.685 138.23 364.054L68.5 363.109L-0.173916 364.054C-12.1478 364.685 -28.7 365 -49.8304 365C-51.9435 365 -53 363.109 -53 359.326C-53 355.544 -51.9435 353.653 -49.8304 353.653C-23.0652 353.653 -3.34348 352.077 9.33478 348.925C22.7174 345.143 31.8739 338.839 36.8044 330.013C41.7348 321.187 44.2 307.319 44.2 288.407V76.5933Z" fill="white" fill-opacity="0.6"/>
</svg>

<svg width="190" height="365" fill="none" xmlns="http://www.w3.org/2000/svg"><path d="M44.2 76.593c0-19.542-2.465-33.726-7.396-42.552-4.226-8.825-12.678-14.814-25.356-17.966-12.678-3.152-33.105-4.728-61.278-4.728-2.114 0-3.17-1.891-3.17-5.673C-53 1.89-51.944 0-49.83 0c20.426 0 36.626.315 48.6.946l69.73.945 68.674-.945C149.148.316 165.7 0 186.83 0c2.113 0 3.17 1.891 3.17 5.674 0 3.782-1.057 5.673-3.17 5.673-26.765 0-46.839 1.891-60.221 5.674-12.679 3.152-21.483 9.14-26.413 17.966S92.8 57.681 92.8 76.593v211.814c0 19.542 2.113 33.726 6.34 42.552 4.93 8.825 13.734 14.814 26.412 17.966 12.678 3.152 33.105 4.728 61.278 4.728 2.113 0 3.17 1.891 3.17 5.673 0 3.783-1.057 5.674-3.17 5.674-20.426 0-36.626-.315-48.6-.946l-69.73-.945-68.674.945c-11.974.631-28.526.946-49.656.946-2.114 0-3.17-1.891-3.17-5.674 0-3.782 1.056-5.673 3.17-5.673 26.765 0 46.487-1.576 59.165-4.728 13.382-3.782 22.539-10.086 27.47-18.912 4.93-8.826 7.395-22.694 7.395-41.606V76.593z" fill="#fff" fill-opacity=".6"/></svg>
